spyder/images/light/run_cell_advance.svg

<?xml version="1.0" encoding="UTF-8" standalone="no"?>
<svg
   xmlns:dc="http://purl.org/dc/elements/1.1/"
   xmlns:cc="http://creativecommons.org/ns#"
   xmlns:rdf="http://www.w3.org/1999/02/22-rdf-syntax-ns#"
   xmlns:svg="http://www.w3.org/2000/svg"
   xmlns="http://www.w3.org/2000/svg"
   xmlns:sodipodi="http://sodipodi.sourceforge.net/DTD/sodipodi-0.dtd"
   xmlns:inkscape="http://www.inkscape.org/namespaces/inkscape"
   width="24"
   height="24"
   viewBox="0 0 24 24"
   fill="none"
   version="1.1"
   id="svg120"
   sodipodi:docname="run cell advance 2-15-1.svg"
   inkscape:version="1.0.2 (e86c8708, 2021-01-15)">
  <metadata
     id="metadata126">
    <rdf:RDF>
      <cc:Work
         rdf:about="">
        <dc:format>image/svg+xml</dc:format>
        <dc:type
           rdf:resource="http://purl.org/dc/dcmitype/StillImage" />
        <dc:title></dc:title>
      </cc:Work>
    </rdf:RDF>
  </metadata>
  <defs
     id="defs124" />
  <sodipodi:namedview
     pagecolor="#ffffff"
     bordercolor="#666666"
     borderopacity="1"
     objecttolerance="10"
     gridtolerance="10"
     guidetolerance="10"
     inkscape:pageopacity="0"
     inkscape:pageshadow="2"
     inkscape:window-width="689"
     inkscape:window-height="480"
     id="namedview122"
     showgrid="false"
     inkscape:zoom="5.0065913"
     inkscape:cx="12"
     inkscape:cy="12"
     inkscape:window-x="30"
     inkscape:window-y="23"
     inkscape:window-maximized="0"
     inkscape:current-layer="svg120"
     inkscape:document-rotation="0" />
  <path
     d="M12 21L16.8571 17.5L12 14V21ZM17.1429 14V21L22 17.5L17.1429 14Z"
     fill="#007A5E"
     id="path116" />
  <path
     fill-rule="evenodd"
     clip-rule="evenodd"
     d="M4 6H20V13.5938L22 15.0349V6C22 4.89543 21.1046 4 20 4H4C2.89543 4 2 4.89543 2 6V16C2 17.1046 2.89543 18 4 18H10V16H4V6ZM16.1634 18H16.1633L16.8571 17.5L16.8571 17.5001L16.1634 18Z"
     fill="#37414F"
     id="path118" />
</svg>

<svg xmlns="http://www.w3.org/2000/svg" width="24" height="24" fill="none"><path fill="#007A5E" d="m12 21 4.857-3.5L12 14v7Zm5.143-7v7L22 17.5 17.143 14Z"/><path fill="#37414F" fill-rule="evenodd" d="M4 6h16v7.594l2 1.44V6a2 2 0 0 0-2-2H4a2 2 0 0 0-2 2v10a2 2 0 0 0 2 2h6v-2H4V6Zm12.163 12 .694-.5-.694.5Z" clip-rule="evenodd"/></svg>
